X: 1
T: String Quartet in B Minor opus 33 no 1 mvt 1
C: Franz Joseph Haydn
%%abc-version 2.0
%%abcx-abcm2ps-target-version 5.9.1 (29 Sep 2008)
%%abc-creator hum2abc beta
%%abcx-conversion-date 2021/02/14 14:38:09
%%abc-copyright Copyright (c) 1994, 2000 Center for Computer Assisted Research in the Humanities
%%abc-edited-by Frances Bennion
%%abcx-initial-encoding-date 1997/04/15
%%gracespace 0 6 6
%%humdrum-veritas 2496185450
%%humdrum-veritas-data 1301021412
%%linebreak <none>
%%barnumbers 0
L: 1/8
M: 4/4
N: Derived from op33n1-01.krn
Q: "Allegro moderato"
%%staves [1 2 3 4]
V: 1
V: 2
V: 3 clef=alto
V: 4 clef=bass
K: D
[V:1]z7 d [I:setbarnb1]|
[V:2]z7 z |
[V:3]z7 z |
[V:4]z7 z |
[V:1]d2 fe/d/ c2 BB |
[V:2]z[FA] [AF][AF] z[BG] [GB][GB] |
[V:3]z8 |
[V:4]z8 |
[V:1]e2 gf/e/ d2 cz |
[V:2]zG EG FB ^Az |
[V:3]z8 |
[V:4]z7 F, |
[V:1]ze ez2 g gz |
[V:2]zc cz2 c cz |
[V:3]z^A Az2 A Az |
[V:4]F,2 G,F,/E,/ F,2 G,F,/E,/ |
[V:1]z^a ac' e'2 d'2 |
[V:2]ze ee ^a2 b2 |
[V:3]zc cc c2 B2 |
[V:4]F,2 G,F,/E,/ F,2 G,2 |
[V:1]z7 c |
[V:2](3:2:2z4 z/BB2- |
[V:3]z2 >G2 G4- |
[V:4]z8 |
[V:1]c2 ed/c/ B2 ^Az |
[V:2]B4 D2 Cz |
[V:3]G4 F4 |
[V:4]zE, E,E, F,2 zF, |
[V:1]ze ez2 g gz |
[V:2]zc cz2 c cz |
[V:3]z^A Az2 A Az |
[V:4]F,2 G,F,/E,/ F,2 G,F,/E,/ |
[V:1]z^a ac' e'2 d'2 |
[V:2]ze ee ^a2 b2 |
[V:3]zc cc c2 B2 |
[V:4]F,2 G,F,/E,/ F,2 G,2 |
[V:1]z7 =c |
[V:2](3:2:2z4 z/GG2- |
[V:3]z2 >E2 E4- |
[V:4]z8 |
[V:1](3:2:2=c2-c//g/e/ c/B3 ^A |
[V:2]G4 F2 E2 |
[V:3]E4 D2 C2 |
[V:4]zE, E,E, F,4 |
[V:1][B,2B2D2] f/>g/f/>g/ fd Bc |
[V:2][B,2B2D2] [c2^A2] B2 zA |
[V:3]F2 E2 D2 zF |
[V:4]B,,2 F,,2 B,,2 zF, |
[V:1]dc zd ed z2 |
[V:2]B^A zB cB z2 |
[V:3]FF zB, ^A,B, z2 |
[V:4]B,,F, z6 |
[V:1][e2E2B2] b/>=c'/b/>c'/ bg ef |
[V:2][G2B2] [F2^d2] [G2e2] zd |
[V:3][G2B,2] [A2B,2] [G2B,2] zB |
[V:4]E,2 B,,2 E,2 zB, |
[V:1]gf zg ag z2 |
[V:2]e^d ze fe z2 |
[V:3]BB zE ^DE z2 |
[V:4]E,B, z6 |
[V:1]g>a g/>a/g/>a/ fd Bf- |
[V:2]^A4 B2 z2 |
[V:3]c4 B2 z2 |
[V:4]E>F E/>F/E/>F/ D2 z2 |
[V:1]f^e =ed dc zF |
[V:2]^A2 >B2 BA zF- |
[V:3]C2 >B,2 F2 z2 |
[V:4]z6 F,2 |
[V:1]^G2 ^AB B,^A, zd |
[V:2]F^E =ED DC z2 |
[V:3]zB, CB, F,z3 |
[V:4]F,4- F,z3 |
[V:1]d2 fe/d/ c2 Be |
[V:2]F4 G4 |
[V:3]A4 D4 |
[V:4]D,,8- |
[V:1]e2 gf/e/ d2 ca |
[V:2]B4 G3 c |
[V:3]G4 E4 |
[V:4]D,,8- |
[V:1]a4- a>>b a/>b/a3//b// |
[V:2]d2 fe/d/ d2 ce |
[V:3]F2 AG/F/ F2 EG |
[V:4]D,,2 z2 A,,2 z2 |
[V:1]a4- a>>b a/>b/a3//a// |
[V:2]e2 gf/e/ e2 da |
[V:3]G2 BA/G/ G2 FE |
[V:4]C4 D3 C |
[V:1]d'4 c'4 |
[V:2]a>d' ba/g/ g2 ff |
[V:3]DF GG, A,E Fz |
[V:4]B,B, B,B, A,A, A,A, |
[V:1]b4 a4 |
[V:2]f>b gf/e/ e2 d2 |
[V:3]z^D E2 zC =D2 |
[V:4]G,G, G,G, F,F, F,F, |
[V:1]^g4 a4 |
[V:2]d4 e4 |
[V:3]B4 A4 |
[V:4]E,2 F,E,/D,/ D,2 C,E, |
[V:1]c4 d3 d |
[V:2]A4 A4 |
[V:3]E4 D3 F |
[V:4]G,2 B,A,/G,/ G,2 F,2 |
[V:1]e2 gf/e/ d2 cd |
[V:2]B4 _B3 A/d/ |
[V:3]G7 F |
[V:4]z7 F |
[V:1]g2 ba/g/ g2 fa |
[V:2]d2 c2 d4 |
[V:3]B2 A2 A4 |
[V:4]E4 D4 |
[V:1]d'>c' d'/c'/d'/^a/ bb bz |
[V:2]dd dd dd dd |
[V:3]AA AD DB, B,B |
[V:4]F,F, F,F, G,G, G,G, |
[V:1]g>f g/a/b/c/ dd dz |
[V:2]cc cG FF FF |
[V:3]EE EE DD DD |
[V:4]A,A, A,A, B,B, B,B, |
[V:1]d'/c'/d'/c'/ d'/c'/=c'/^a/ bb bz |
[V:2]Dd dd dd dz |
[V:3]AA AD DB Bz |
[V:4]F,F, F,F, G,G, G,z |
[V:1]gg gz fz bz |
[V:2]cc cz dz dz |
[V:3]EE Ez Dz Dz |
[V:4]A,A, A,z B,z G,z |
[V:1](3A/d/f/(3d/f/a/ (3d/f/a/(3f/a/d'/ e4 |
[V:2]F4 GG GG |
[V:3]D4 CC CC |
[V:4]A,4- A,A, A,A, |
[V:1]dd' c'b a^g ab |
[V:2]FB AG F^E FG |
[V:3]D2 z6 |
[V:4]D,8- |
[V:1]e3 a/c/ dd cB |
[V:2]^G2 A=G FD DD |
[V:3]B,2 CE D2 z2 |
[V:4]D,2 A,,2 D,B,, A,,G,, |
[V:1]A^G AB2 <E2 A/C/ |
[V:2]D6 CE |
[V:3]z4 B,2 A,G, |
[V:4]F,,^E,, F,,G,, ^G,,2 A,,2 |
[V:1]Dz cz dz c3/B//c// |
[V:2](3D/F/A/(3D/F/A/ (3E/G/A/(3E/G/A/ (3D/F/A/(3D/F/A/ (3E/G/A/(3E/G/A/ |
[V:3]F,z A,z A,z A,z |
[V:4]D,D, A,,A,, D,D, A,,A,, |
[V:1]dz [ec']z [fd']z3 |
[V:2]Fz [Ag]z [fA]z2 A |
[V:3]A,z A,z Dz3 |
[V:4]D,z A,,z D,,z3 |
[V:1]z7 f |
[V:2]A2 =cB/A/ G2 F2 |
[V:3]=C8 |
[V:4]F,2 >G,2 A,4 |
[V:1]f2 ag/f/ e2 ^de |
[V:2]z=c cc2 <c2 B |
[V:3]zA AA2 <A2 G |
[V:4]z7 B, |
[V:1]f2 z2 b>^a b/g/f/e/ |
[V:2]AF2 G/A/ BB BB |
[V:3]F^D2 E/F/ EE EE |
[V:4]B,2 =CB,/A,/ G,G, G,G, |
[V:1]^dd dz a>^g a/b/=c'/f/ |
[V:2]BB BB BB BB |
[V:3]AA AA FF FF |
[V:4]F,F, F,F, ^D,D, D,D, |
[V:1]gg gz B,4 |
[V:2]BB BB B>^A B/G/F/E/ |
[V:3]EE Ez4 z |
[V:4]E,E, E,E, G,G, G,G, |
[V:1]A,4 zB, B,B, |
[V:2]^DD Dz A>^G A/B/=c/A/ |
[V:3]=c>B c/B/A/G/ FF FF |
[V:4]F,F, F,F, ^D,D, D,D, |
[V:1]b/^a/b/f/ g/^d/e/^A/ B/F/G/^D/ E/G/B/e/ |
[V:2]GB BB BB BB |
[V:3]GG GG GG GG |
[V:4]E,E, E,E, E,E, E,E, |
[V:1]b/^a/b/f/ ^g/^d/e/^A/ B/F/^G/^D/ E/G/B/e/ |
[V:2][B^G][GB] [BG][BG] [BG][BG] [BG][BG] |
[V:3]EE EE EE EE |
[V:4]D,D, D,D, D,D, D,D, |
[V:1]b/^a/b/^e/ ^g/B/d/^G/ B/^E/G/^B,/ C/E/G/B/ |
[V:2][B^G][BG] [BG][BG] [BG][BG] [BG][BG] |
[V:3]^EE EE EE EE |
[V:4]C,C, C,C, C,C, C,C, |
[V:1]a/^g/a/^e/ f/^B/c/^G/ A/^E/F/A/ c/f/a/f/ |
[V:2]AA AA AA AA |
[V:3]FF FF FF FF |
[V:4]C,C, C,C, C,C, C,C, |
[V:1]c'/^b/c'/^g/ a/g/a/f/ c'/b/c'/g/ a/g/a/f/ |
[V:2]^E/F/E/C/ F/E/F/A/ E/F/E/c/ F/E/F/A/ |
[V:3]CC CC CC FF |
[V:4]C,C, C,C, C,C, C,C, |
[V:1]c'c' c'c' c'z2 A |
[V:2]^GA GA Gz2 C |
[V:3]^EF EF Ez3 |
[V:4]C,C, C,C, C,z3 |
[V:1]A2 cB/A/ ^G2 Fd |
[V:2]C4 D4 |
[V:3]E,4 D,4 |
[V:4]A,,8- |
[V:1]d2 fe/d/ c2 Be |
[V:2]F4 ^G4 |
[V:3]D8 |
[V:4]A,,8 |
[V:1]e4- e>>f e/>f/e3//f// |
[V:2]A2 cB/A/ A2 ^GB |
[V:3]C2 ED/C/ C2 B,D |
[V:4]A,,2 z2 E,2 z2 |
[V:1](3:2:2e4- e/8f/<e/f//e e|
[V:2]B2 dc/B/ B2 AC |
[V:3]D2 FE/D/ D2 CA |
[V:4]^G,4 A,4 |
[V:1]e2 gf/e/ e2 dd |
[V:2]C4 D4 |
[V:3]AA AA AA AF |
[V:4]GG GG FF Fz |
[V:1]c2 ed/c/ c2 BB |
[V:2]GG GG FF FF |
[V:3]EE EE DD DD |
[V:4]z8 |
[V:1]^B4 c3 =B |
[V:2]F2 A^G/F/ F2 ^E2 |
[V:3]D4 C4 |
[V:4]z8 |
[V:1]^A4 B4 |
[V:2]E2 GF/E/ E2 DC |
[V:3]C2 ED/C/ C2 B,C |
[V:4]F,8 |
[V:1]^E4 F3 d |
[V:2]B,2 DC/B,/ B,2 ^A,z |
[V:3]D6 Cz |
[V:4][G,,4G,4] F,,4 |
[V:1]d2 fe/d/ c2 BB |
[V:2]zA AA zB BB |
[V:3]zF FF zG GG |
[V:4]z8 |
[V:1]e2 gf/e/ d2 cz |
[V:2]zB BB B2 ^Az |
[V:3]zG GG F2 z2 |
[V:4]z7 F, |
[V:1]ze ez2 g gz |
[V:2]zc cz2 c cz |
[V:3]z^A Az zA Az |
[V:4]F,2 G,F,/E,/ F,2 G,F,/E,/ |
[V:1]z^a ac' e'2 d'2 |
[V:2]ze ee ^a2 b2 |
[V:3]zc cc c2 B2 |
[V:4]F,2 G,F,/E,/ F,2 G,2 |
[V:1]z7 c |
[V:2](3:2:2z4 z/BB2- |
[V:3]z2 >G2 G4- |
[V:4]z8 |
[V:1]c2 ed/c/ B2 ^Az |
[V:2]B4 D2 Cz |
[V:3]G4 F3 E |
[V:4]zE, E,E, F,2 z2 |
[V:1]z2 >=c2 c[gcE] [gcE]z |
[V:2]zG2 <G2 [e=c] [ec]z |
[V:3]E4- E[G=c] [cG]F |
[V:4]z4 z[=CE,] [CE,]z |
[V:1]z2 >=c2 ca az |
[V:2]zA2 <A2 [^dF] [dF]z |
[V:3]F4- F^D DG |
[V:4]z4 z[A,F,] [A,F,]z |
[V:1]z2 >e2 e[bB] [bB]z |
[V:2]zB2 <B2 [BeE] [eBE]z |
[V:3]G4- G[G,E] [EG,]^G |
[V:4]z4 z[G,G,,] [G,G,,]z |
[V:1]z2 >^e2 e[bB] [bB]z |
[V:2]zB2 <B2 [^e^G] [eG]z |
[V:3]^G4- GD Dz |
[V:4]z4 z^G, G,z |
[V:1]z[^acF] [acF]z2 ^e ez |
[V:2]z[fcF] [fFc]z2 B Bz |
[V:3]z^A, A,z2 G Gz |
[V:4]zF, F,z4 z |
[V:1]zf fz2 D Dz |
[V:2]z^A Az2 B, B,z |
[V:3]zF Fz4 z |
[V:4]z4 z^E,, E,,z |
[V:1]zC C(3:2:2z4 z/ |
[V:2]z^A,A, (3:2:2z4 z/|
[V:3]z8 |
[V:4]zF,, F,,z4 z |
[V:1][B,2B2D2] f/>g/f/>g/ fd Bc |
[V:2][B2D2B,2] [c2^A2] B2 zA |
[V:3][F2B,2] [E2C2] D2 zF |
[V:4]B,,2 F,,2 B,,2 zF, |
[V:1]dc zd ed z2 |
[V:2]B^A zF GF z2 |
[V:3]FF zB, ^A,B, z2 |
[V:4]B,,F, z6 |
[V:1][E2e2B2] b/>=c'/b/>c'/ bg ef |
[V:2][B2G2] [^d2F2] [e2G2] zd |
[V:3][G2B,2] [B,2A2] [G2B,2] zB |
[V:4]E,2 B,,2 E,2 zB, |
[V:1]gf zg ag z2 |
[V:2]e^d zB =cB z2 |
[V:3]BB zE ^DE z2 |
[V:4]E,B, z6 |
[V:1]g>a g/>a/g/>a/ fd Bf- |
[V:2]^A4 B2 z2 |
[V:3]c4 B2 z2 |
[V:4]E>F E/>F/E/>F/ D2 z2 |
[V:1]f^e =ed dc f2- |
[V:2]^A2 >B2 BA z2 |
[V:3]C2 >B,2 F2 z2 |
[V:4]z4 F,2- F,/>G,/F,3//G,// |
[V:1]f/>g/f/>g/ fd Bz b2- |
[V:2](3:2:2F4- F/8G/<F/G//F DB, z|
[V:3]z2 D2- D/>E/D/>E/ DB, |
[V:4]F,D, B,,z B,2- B,/>=C/B,3//C// |
[V:1]b/>=c'/b/>c'/ bg ez g2- |
[V:2](3:2:2B4- B/8=c/<B/c//B GE z|
[V:3]G,2 G2- G/>A/G/>A/ GE |
[V:4]B,G, E,z E2- E/>F/E3//F// |
[V:1]g/>a/g/>a/ ge ce gg |
[V:2]z2 (3:2:2e4- e/8^d/<e/d//e c|
[V:3]Cz G2- G/>F/G/>F/ GE |
[V:4]EC ^A,A, A,4- |
[V:1]g8 |
[V:2]^Ac ee c4 |
[V:3]CE GG E4 |
[V:4]A,8 |
[V:1]b>^a b/a/b/f/ gg gz |
[V:2]BB BB BB BB |
[V:3]FF FF EE EE |
[V:4]D,D, D,D, E,E, E,E, |
[V:1]e>^d e/f/g/^A/ BB Bz |
[V:2]^AA cE DD DD |
[V:3]CC CC B,B, B,B, |
[V:4]F,F, F,F, G,G, G,G, |
[V:1]b/^a/b/a/ b/a/=a/f/ gg gz |
[V:2]B,B BB BB Bz |
[V:3]FF FF EE Ez |
[V:4]D,D, D,^D, E,E, E,z |
[V:1]ee ez dz gz |
[V:2]^AA Az Bz Bz |
[V:3]CC Cz B,z Ez |
[V:4]F,F, F,z G,z E,z |
[V:1](3D/F/B/(3F/B/d/ (3B/d/f/(3d/f/b/ c4 |
[V:2]B4 ^AA AA |
[V:3]D4 EE EE |
[V:4]F,4 F,,F,, F,,F,, |
[V:1]Bb ag f^e fg |
[V:2]BG FE DC DE |
[V:3]D2 z6 |
[V:4]B,,8- |
[V:1]c3 f/^A/ BB =AG |
[V:2]^E2 F=E DB, B,B, |
[V:3]^G,2 ^A,C B,2 z2 |
[V:4]B,,2 F,,2 B,,G,, F,,E,, |
[V:1]F^E FG2 <C2 F/^A,/ |
[V:2]B,6 ^A,C |
[V:3]z4 ^G,2 F,E, |
[V:4]D,,C,, D,,E,, ^E,,2 F,,F,, |
[V:1]B,z ^Az Bz c3/B//c// |
[V:2](3B,/D/F/(3B,/D/F/ (3C/E/F/(3C/E/F/ (3B,/D/F/(3B,/D/F/ (3C/E/F/(3C/E/F/ |
[V:3]D,z Ez Dz ^Az |
[V:4]B,,B,, F,,F,, B,,B,, F,,F,, |
[V:1]dz [^ac]z [bd]z3 |]
[V:2]Dz [cF]z [dF]z3 |]
[V:3]Bz [CE]z [B,D]z3 |]
[V:4]B,,z F,,z B,,z3 |]

